_inc/images/systems/logos/wii.svg

<svg viewBox="0 0 600 287" xmlns="http://www.w3.org/2000/svg">
    <path d="M414.066 32.676c0 18.018 15.168 32.64 33.84 32.64 19.41 0 34.65-14.322 34.65-32.64C482.553 14.355 467.316 0 447.906 0c-18.672 0-33.84 14.643-33.84 32.676m5.616 65.355h57.774v186.927h-57.774zM531.51 32.676c0 18.018 15.198 32.64 33.861 32.64 19.419 0 34.629-14.322 34.629-32.64C600 14.355 584.79 0 565.371 0c-18.663 0-33.861 14.643-33.861 32.676m5.598 65.355h57.789v186.927h-57.789zM327.81 15.72l-50.661 198.621S238.413 65.253 232.113 44.106c-6.3-21.183-19.272-30.462-37.662-30.462-18.402 0-31.392 9.279-37.692 30.462-6.279 21.147-45.021 170.235-45.021 170.235L61.041 15.72H0s58.626 211.92 66.597 236.457c6.198 19.158 20.883 34.821 42.654 34.821 24.888 0 36.528-18.147 41.916-34.821 5.334-16.572 43.284-156.537 43.284-156.537s37.947 139.965 43.266 156.537c5.388 16.674 17.028 34.821 41.91 34.821 21.786 0 36.444-15.663 42.684-34.821 7.95-24.537 66.537-236.457 66.537-236.457H327.81Z" style="fill:#fff"/>
</svg>

<?xml version="1.0" encoding="utf-8"?>
<svg version="1.1" viewBox="0 0 600 287" xmlns="http://www.w3.org/2000/svg">
  <g>
    <path d="M 414.066 32.676 C 414.066 50.694 429.234 65.316 447.906 65.316 C 467.316 65.316 482.556 50.994 482.556 32.676 C 482.553 14.355 467.316 0 447.906 0 C 429.234 0 414.066 14.643 414.066 32.676" style="fill: rgb(255, 255, 255);"/>
    <rect x="419.682" y="98.031" width="57.774" height="186.927" style="fill: rgb(255, 255, 255);"/>
    <path d="M 531.51 32.676 C 531.51 50.694 546.708 65.316 565.371 65.316 C 584.79 65.316 600 50.994 600 32.676 C 600 14.355 584.79 0 565.371 0 C 546.708 0 531.51 14.643 531.51 32.676" style="fill: rgb(255, 255, 255);"/>
    <rect x="537.108" y="98.031" width="57.789" height="186.927" style="fill: rgb(255, 255, 255);"/>
    <path d="M 327.81 15.72 L 277.149 214.341 C 277.149 214.341 238.413 65.253 232.113 44.106 C 225.813 22.923 212.841 13.644 194.451 13.644 C 176.049 13.644 163.059 22.923 156.759 44.106 C 150.48 65.253 111.738 214.341 111.738 214.341 L 61.041 15.72 L 0 15.72 C 0 15.72 58.626 227.64 66.597 252.177 C 72.795 271.335 87.48 286.998 109.251 286.998 C 134.139 286.998 145.779 268.851 151.167 252.177 C 156.501 235.605 194.451 95.64 194.451 95.64 C 194.451 95.64 232.398 235.605 237.717 252.177 C 243.105 268.851 254.745 286.998 279.627 286.998 C 301.413 286.998 316.071 271.335 322.311 252.177 C 330.261 227.64 388.848 15.72 388.848 15.72 L 327.81 15.72 Z" style="fill: rgb(255, 255, 255);"/>
  </g>
</svg>
